src/rounded/icons/fi-rr-euro.svg

<svg id="Layer_1" height="512" viewBox="0 0 24 24" width="512" xmlns="http://www.w3.org/2000/svg" data-name="Layer 1"><path d="m21.715 18.363a10 10 0 0 1 -17.254-3.363h10.539a1 1 0 0 0 0-2h-10.949a9.829 9.829 0 0 1 0-2h10.949a1 1 0 0 0 0-2h-10.539a10 10 0 0 1 17.254-3.363 1 1 0 0 0 1.542-1.274 11.989 11.989 0 0 0 -20.857 4.637h-1.4a1 1 0 0 0 0 2h1.051c-.028.331-.051.662-.051 1s.023.669.051 1h-1.051a1 1 0 0 0 0 2h1.4a11.989 11.989 0 0 0 20.862 4.637 1 1 0 0 0 -1.542-1.274z"/></svg>

<svg id="Layer_1" data-name="Layer 1" xmlns="http://www.w3.org/2000/svg" viewBox="0 0 24 24"><path d="M21.715,18.363A10,10,0,0,1,4.461,15H15a1,1,0,0,0,0-2H4.051a9.829,9.829,0,0,1,0-2H15a1,1,0,0,0,0-2H4.461A10,10,0,0,1,21.715,5.637a1,1,0,0,0,1.542-1.274A11.989,11.989,0,0,0,2.4,9H1a1,1,0,0,0,0,2H2.051c-.028.331-.051.662-.051,1s.023.669.051,1H1a1,1,0,0,0,0,2H2.4a11.989,11.989,0,0,0,20.862,4.637,1,1,0,0,0-1.542-1.274Z"/></svg>
